svgs/light/duck.svg

<svg xmlns="http://www.w3.org/2000/svg" viewBox="0 0 512 512"><!--! Font Awesome Pro 6.4.0 by @fontawesome - https://fontawesome.com License - https://fontawesome.com/license (Commercial License) Copyright 2023 Fonticons, Inc. --><path d="M368 259V235.4c0-17.3 7.1-31.9 15.3-42.5L402.7 208l-19.4-15.1C393.8 179.4 400 162.5 400 144c0-44.2-35.8-80-80-80s-80 35.8-80 80c0 26.2 12.6 49.5 32.2 64.2c9.8 7.3 14.5 19.5 12.3 31.5s-11.1 21.7-22.8 25l-165 46.2c-7 2-14.5 1.5-21.2-1.4L32.2 290.9C36.5 378 108.4 448 196 448H312c53 0 96-43 96-96c0-27.5-11.5-52.2-30-69.7c-6.4-6-10-14.4-10-23.2zm32-19v19c24.6 23.3 40 56.3 40 93c0 70.7-57.3 128-128 128H196C87.8 480 0 391 0 282.7C0 268.1 11.9 256 26.6 256c3.6 0 7.2 .7 10.5 2.1L88 280l128.4-36L253 233.8c-9.8-7.3-18.3-16.1-25.2-26.2c-12.5-18.1-19.8-40-19.8-63.6c0-61.9 50.1-112 112-112c54.1 0 99.3 38.4 109.7 89.4c9.6 1.3 19.3 1.3 28.9 .1l24.2-3c15.5-1.9 29.2 10.1 29.2 25.8c0 52.9-42.9 95.7-95.7 95.7H400zm31.6-86.2c-1.7 20-8.8 38.6-19.7 54.2h4.4c32.9 0 59.9-24.9 63.3-56.8l-17 2.1c-10.3 1.3-20.7 1.5-31 .5zM312 152a24 24 0 1 1 48 0 24 24 0 1 1 -48 0zm13.2 159.7c-6.2 46.7-41.4 87-90.7 99.3c-40.4 10.1-81.2-.9-109.7-26.2c-6.6-5.9-7.2-16-1.3-22.6s16-7.2 22.6-1.3c20.7 18.3 50.6 26.6 80.7 19.1c36.8-9.2 62.3-39 66.7-72.5c1.2-8.8 9.2-14.9 18-13.7s14.9 9.2 13.7 18z"/></svg>

<svg xmlns="http://www.w3.org/2000/svg" viewBox="0 0 512 512"><!--! Font Awesome Pro 6.3.0 by @fontawesome - https://fontawesome.com License - https://fontawesome.com/license (Commercial License) Copyright 2023 Fonticons, Inc. --><path d="M360 152C360 165.3 349.3 176 336 176C322.7 176 312 165.3 312 152C312 138.7 322.7 128 336 128C349.3 128 360 138.7 360 152zM234.5 411C194.1 421.1 153.3 410.1 124.8 384.8C118.2 378.9 117.6 368.8 123.4 362.2C129.3 355.6 139.4 355 146 360.9C166.7 379.2 196.6 387.5 226.7 379.1C263.5 370.8 289 340.1 293.5 307.5C294.6 298.7 302.7 292.6 311.4 293.7C320.2 294.9 326.4 302.1 325.2 311.7C318.1 358.4 283.8 398.7 234.5 411L234.5 411zM400 240V259C424.6 282.4 440 315.4 440 352C440 422.7 382.7 480 312 480H196C87.75 480 0 390.1 0 282.7C0 268.1 11.89 256 26.55 256C30.15 256 33.7 256.7 37.01 258.1L88 280L253 233.8C243.3 226.5 234.7 217.7 227.8 207.6C215.3 189.6 208 167.6 208 144C208 82.14 258.1 32 320 32C374.1 32 419.3 70.38 429.7 121.4C439.3 122.7 449 122.7 458.6 121.5L482.8 118.5C498.3 116.6 512 128.7 512 144.3C512 197.1 469.1 240 416.3 240H400zM368 235.4C368 218.2 375.1 203.6 383.3 192.9C393.8 179.4 400 162.5 400 144C400 99.82 364.2 64 320 64C275.8 64 240 99.82 240 144C240 170.2 252.6 193.5 272.2 208.2C281.1 215.4 286.7 227.7 284.5 239.7C282.3 251.6 273.4 261.3 261.7 264.6L96.63 310.8C89.6 312.8 82.11 312.3 75.39 309.4L32.2 290.9C36.46 377.1 108.4 448 196 448H312C365 448 408 405 408 352C408 324.5 396.5 299.8 377.1 282.3C371.6 276.2 368 267.8 368 259V235.4zM411.9 208H416.3C449.1 208 476.2 183.1 479.6 151.2L462.6 153.3C452.3 154.6 441.9 154.8 431.6 153.8C429.8 173.8 422.8 192.4 411.9 208zM402.7 208L383.3 192.9L402.7 208z"/></svg>
